X: 343
M: 6/8
L: 1/8
K: D
!segno!d2e |\
fgf efd | e2A d2e |\
fgf edc | Hd3 |][|\
[M:2/4] "2.F."f/g/f/e/ |\
dcBA | ^GE [M:6/8] A^GA |
a3 bc'b | a3 efe |\
edc BA^G | A3 efe |\
efe efe | e3 efe |\
efe efe | e3 !segno!y|]

